img/player-warning.svg

<svg fill="none" height="12" viewBox="0 0 11 12" width="11" xmlns="http://www.w3.org/2000/svg"><rect fill="#08274d" fill-opacity=".3" height="11" rx="5.5" width="11" y=".5"/><path d="m4.88477 7.13184-.11719-4.67774h1.46484l-.11719 4.67774zm.61523 2.42675c-.44434 0-.7959-.33691-.7959-.7666s.35156-.7666.7959-.7666.7959.33691.7959.7666-.35156.7666-.7959.7666z" fill="#fff"/></svg>

<svg width="11" height="12" viewBox="0 0 11 12" fill="none" xmlns="http://www.w3.org/2000/svg">
<rect y="0.5" width="11" height="11" rx="5.5" fill="#08274D" fill-opacity="0.3"/>
<path d="M4.88477 7.13184L4.76758 2.4541H6.23242L6.11523 7.13184H4.88477ZM5.5 9.55859C5.05566 9.55859 4.7041 9.22168 4.7041 8.79199C4.7041 8.3623 5.05566 8.02539 5.5 8.02539C5.94434 8.02539 6.2959 8.3623 6.2959 8.79199C6.2959 9.22168 5.94434 9.55859 5.5 9.55859Z" fill="white"/>
</svg>
